X: 16139
T: Green Grow The Rushes
R: barndance
M: 4/4
K: Gmajor
G2GA BGG2|ABcd eAAB|c2ecB2dB|AcBA GEDE|
G2GA BGG2|ABcd eAAB|c2ecB2dB|AcBA GED2:|
|:g2ga gede|a2ab agef|g2ga gedB|AcBA GED2|
g2ga gede|a2ab agef|g2ga gedB|AcBA GED2:|

